X:25
T:Ingenish
R:jig
M:6/8
L:1/8
K:D maj
|:Bee efg|faf dBA|Bee efg|fdBd3|Bee efg|~f3dBA|~B3Bcd|AGFE3:|:BEE B
EE|FEF DEF|BEE BEE|FEDE2c|BEE BEE|FEF DEF|~B3Bcd|AGFE2A:|

